X:461
T:Callaghan's
R:Hornpipe
Z:Transcription:Henrik Norbeck (?),slight rearrangement, chords:Mike Long
M:4/4
L:1/8
K:G
(3(ABc)|:\
"G"dBcA GBdB|"D"ADFE DFAF|"G"G2GF GBdB|"C"~A3G "D"Agfe|\
"G"dBcA GBdB|
"D"ADFE DFAf|"C"g2gf gdcA|"G"G2GF GABc:|\
|:"G"dg~g2 dg~g2|dgfg ed (3(Bcd)|"Am"eaaf gfed|
"D"(3(Bcd) eg "C"gfge|\
"G"dBcA GBdB|"D"ADFE DFAf|"C"g2gf gdcA|"G"G2GF GABc:|
